X:1
T:Cluster of Nuts
M:6/8
L:1/8
K:A
 E| AAA A2 C| E3 E2 A| G2 B B2 B| B3- B2 A| c2 c c2 A| B2 B B2 c| AAA A2 C|\
 G3 z2|| FE| A,3/2 A,/2 A, CDE| F2 D B,3| A,3/2 A,/2 A, CDE| F2 G A2|\
